; generated by PrusaSlicer 2.3.0+win64 on 2021-04-09 at 14:32:57 UTC

; 

; external perimeters extrusion width = 0.40mm
; perimeters extrusion width = 0.40mm
; infill extrusion width = 0.45mm
; solid infill extrusion width = 0.45mm
; top infill extrusion width = 0.40mm
; first layer extrusion width = 0.40mm

M201 X500 Y500 Z100 E5000 ; sets maximum accelerations, mm/sec^2
M203 X500 Y500 Z10 E60 ; sets maximum feedrates, mm/sec
M204 P500 R1000 T500 ; sets acceleration (P, T) and retract acceleration (R), mm/sec^2
M205 X8.00 Y8.00 Z0.40 E5.00 ; sets the jerk limits, mm/sec
M205 S0 T0 ; sets the minimum extruding and travel feed rate, mm/sec
M107
;TYPE:Custom
G90 ; use absolute coordinates
M83 ; extruder relative mode
M104 S210 ; set extruder temp
M140 S70 ; set bed temp
M190 S70 ; wait for bed temp
M109 S210 ; wait for extruder temp
; Ender 3 Custom Start G-code
G92 E0 ; Reset Extruder
M280 P0 S160 ; BLTouch alarm release
G4 P100 ; delay for BLTouch
G28 ; home
G29 A ;
G29 L0 ;
G29 J2 ; Enable ABL
G1 Z2.0 F3000 ; Move Z Axis up little to prevent scratching of Heat Bed
G1 X0.1 Y20 Z0.3 F5000.0 ; Move to start position
G1 X0.1 Y200.0 Z0.3 F1500.0 E15 ; Draw the first line
G1 X0.4 Y200.0 Z0.3 F5000.0 ; Move to side a little
G1 X0.4 Y20 Z0.3 F1500.0 E30 ; Draw the second line
G92 E0 ; Reset Extruder
G1 Z2.0 F3000 ; Move Z Axis up little to prevent scratching of Heat Bed
G1 X5 Y20 Z0.3 F5000.0 ; Move over to prevent blob squish
G21 ; set units to millimeters
G90 ; use absolute coordinates
M83 ; use relative distances for extrusion
; Filament gcode
;LAYER_CHANGE
;Z:0.2
;HEIGHT:0.2
;BEFORE_LAYER_CHANGE
G92 E0
;0.2


G1 Z0.200 F9000.000
;AFTER_LAYER_CHANGE
;0.2
G1 E-6.00000 F2700.000
G1 X91.301 Y91.879 F9000.000
G1 E6.00000 F2100.000
;TYPE:Skirt
;WIDTH:0.4
G1 F1200.000
G1 X92.621 Y90.766 E0.05126
G1 X93.583 Y90.360 E0.03099
G1 X94.570 Y90.181 E0.02981
G1 X125.477 Y90.184 E0.91765
G1 X126.445 Y90.369 E0.02926
G1 X127.384 Y90.769 E0.03032
G1 X128.664 Y91.839 E0.04952
G1 X129.466 Y93.108 E0.04458
G1 X129.819 Y94.547 E0.04399
G1 X129.819 Y125.453 E0.91764
G1 X129.465 Y126.892 E0.04401
G1 X128.699 Y128.121 E0.04300
G1 X127.379 Y129.234 E0.05126
G1 X126.417 Y129.640 E0.03099
G1 X125.430 Y129.819 E0.02980
G1 X94.547 Y129.819 E0.91696
G1 X93.108 Y129.465 E0.04401
G1 X91.879 Y128.699 E0.04300
G1 X90.766 Y127.379 E0.05126
G1 X90.360 Y126.417 E0.03099
G1 X90.181 Y125.430 E0.02980
G1 X90.181 Y94.547 E0.91696
G1 X90.535 Y93.108 E0.04401
G1 X91.269 Y91.930 E0.04122
G1 X91.571 Y92.120 F9000.000
G1 F1200.000
G1 X92.786 Y91.084 E0.04742
G1 X93.667 Y90.708 E0.02846
G1 X94.587 Y90.538 E0.02776
G1 X125.459 Y90.541 E0.91664
G1 X126.357 Y90.716 E0.02716
G1 X127.218 Y91.086 E0.02783
G1 X128.412 Y92.094 E0.04639
G1 X129.126 Y93.222 E0.03966
G1 X129.462 Y94.569 E0.04121
G1 X129.462 Y125.431 E0.91633
G1 X129.126 Y126.778 E0.04121
G1 X128.412 Y127.907 E0.03967
G1 X127.214 Y128.916 E0.04651
G1 X126.333 Y129.292 E0.02846
G1 X125.413 Y129.462 E0.02775
G1 X94.569 Y129.462 E0.91581
G1 X93.222 Y129.126 E0.04121
G1 X92.093 Y128.412 E0.03967
G1 X91.084 Y127.214 E0.04651
G1 X90.708 Y126.333 E0.02846
G1 X90.538 Y125.413 E0.02775
G1 X90.538 Y94.569 E0.91581
G1 X90.874 Y93.222 E0.04121
G1 X91.539 Y92.171 E0.03694
G1 X91.835 Y92.356 F9000.000
G1 F1200.000
G1 X92.953 Y91.401 E0.04365
G1 X93.753 Y91.055 E0.02590
G1 X94.604 Y90.895 E0.02569
G1 X125.441 Y90.898 E0.91561
G1 X126.268 Y91.062 E0.02503
G1 X127.051 Y91.402 E0.02534
G1 X128.159 Y92.347 E0.04323
G1 X128.808 Y93.387 E0.03640
G1 X129.105 Y94.590 E0.03681
G1 X129.105 Y125.410 E0.91506
G1 X128.808 Y126.613 E0.03681
G1 X128.159 Y127.653 E0.03640
G1 X127.047 Y128.599 E0.04334
G1 X126.247 Y128.945 E0.02590
G1 X125.397 Y129.105 E0.02568
G1 X94.590 Y129.105 E0.91467
G1 X93.387 Y128.808 E0.03681
G1 X92.347 Y128.159 E0.03640
G1 X91.401 Y127.047 E0.04334
G1 X91.055 Y126.247 E0.02590
G1 X90.895 Y125.397 E0.02568
G1 X90.895 Y94.590 E0.91467
G1 X91.192 Y93.387 E0.03681
G1 X91.803 Y92.407 E0.03429
G1 X92.096 Y92.599 F9000.000
G1 F1200.000
G1 X93.121 Y91.717 E0.04016
G1 X93.841 Y91.402 E0.02334
G1 X94.621 Y91.252 E0.02358
G1 X125.423 Y91.256 E0.91456
G1 X126.178 Y91.408 E0.02286
G1 X126.882 Y91.718 E0.02284
G1 X127.905 Y92.599 E0.04007
G1 X128.489 Y93.549 E0.03313
G1 X128.748 Y94.612 E0.03247
G1 X128.748 Y125.388 E0.91380
G1 X128.489 Y126.451 E0.03247
G1 X127.904 Y127.401 E0.03313
G1 X126.879 Y128.283 E0.04016
G1 X126.159 Y128.598 E0.02334
G1 X125.379 Y128.748 E0.02357
G1 X94.612 Y128.748 E0.91353
G1 X93.549 Y128.489 E0.03247
G1 X92.599 Y127.904 E0.03313
G1 X91.717 Y126.879 E0.04016
G1 X91.402 Y126.159 E0.02334
G1 X91.252 Y125.379 E0.02357
G1 X91.252 Y94.612 E0.91353
G1 X91.511 Y93.549 E0.03247
G1 X92.064 Y92.650 E0.03135
G1 X92.352 Y92.849 F9000.000
G1 F1200.000
G1 X93.289 Y92.033 E0.03691
G1 X93.966 Y91.737 E0.02192
G1 X94.637 Y91.609 E0.02031
G1 X125.405 Y91.613 E0.91352
G1 X126.086 Y91.753 E0.02066
G1 X126.711 Y92.033 E0.02033
G1 X127.648 Y92.849 E0.03689
G1 X128.169 Y93.710 E0.02987
G1 X128.391 Y94.632 E0.02818
G1 X128.391 Y125.368 E0.91257
G1 X128.169 Y126.290 E0.02818
G1 X127.648 Y127.151 E0.02987
G1 X126.711 Y127.967 E0.03691
G1 X126.034 Y128.263 E0.02192
G1 X125.363 Y128.391 E0.02030
G1 X94.632 Y128.391 E0.91242
G1 X93.710 Y128.169 E0.02818
G1 X92.849 Y127.648 E0.02987
G1 X92.033 Y126.711 E0.03691
G1 X91.737 Y126.034 E0.02192
G1 X91.609 Y125.363 E0.02030
G1 X91.609 Y94.632 E0.91242
G1 X91.831 Y93.710 E0.02818
G1 X92.321 Y92.900 E0.02809
G1 X92.610 Y93.097 F9000.000
G1 F1200.000
G1 X93.460 Y92.347 E0.03366
G1 X94.055 Y92.083 E0.01931
G1 X94.655 Y91.966 E0.01816
G1 X125.387 Y91.970 E0.91246
G1 X125.958 Y92.087 E0.01733
G1 X126.540 Y92.348 E0.01893
G1 X127.390 Y93.097 E0.03365
G1 X127.848 Y93.868 E0.02660
G1 X128.034 Y94.653 E0.02396
G1 X128.034 Y125.347 E0.91135
G1 X127.848 Y126.132 E0.02396
G1 X127.390 Y126.903 E0.02660
G1 X126.540 Y127.653 E0.03366
G1 X125.945 Y127.917 E0.01931
G1 X125.345 Y128.034 E0.01816
G1 X94.653 Y128.034 E0.91129
G1 X93.868 Y127.848 E0.02396
G1 X93.097 Y127.390 E0.02660
G1 X92.347 Y126.540 E0.03366
G1 X92.083 Y125.945 E0.01931
G1 X91.966 Y125.345 E0.01816
G1 X91.966 Y94.653 E0.91129
G1 X92.152 Y93.868 E0.02396
G1 X92.579 Y93.149 E0.02482
G1 X92.870 Y93.343 F9000.000
G1 F1200.000
G1 X93.633 Y92.661 E0.03041
G1 X94.146 Y92.429 E0.01670
G1 X94.673 Y92.323 E0.01598
G1 X125.367 Y92.327 E0.91135
G1 X125.864 Y92.432 E0.01508
G1 X126.367 Y92.661 E0.01640
G1 X127.130 Y93.343 E0.03041
G1 X127.525 Y94.023 E0.02333
G1 X127.677 Y94.673 E0.01982
G1 X127.677 Y125.327 E0.91016
G1 X127.525 Y125.977 E0.01982
G1 X127.130 Y126.657 E0.02333
G1 X126.367 Y127.339 E0.03041
G1 X125.854 Y127.571 E0.01670
G1 X125.327 Y127.677 E0.01597
G1 X94.673 Y127.677 E0.91016
G1 X94.023 Y127.525 E0.01982
G1 X93.343 Y127.130 E0.02333
G1 X92.661 Y126.367 E0.03041
G1 X92.429 Y125.854 E0.01670
G1 X92.323 Y125.327 E0.01597
G1 X92.323 Y94.673 E0.91016
G1 X92.475 Y94.023 E0.01982
G1 X92.839 Y93.395 E0.02155
G1 X93.132 Y93.587 F9000.000
G1 F1200.000
G1 X93.809 Y92.973 E0.02715
G1 X94.239 Y92.774 E0.01407
G1 X94.692 Y92.680 E0.01373
G1 X125.347 Y92.684 E0.91019
G1 X125.767 Y92.776 E0.01276
G1 X126.191 Y92.973 E0.01388
G1 X126.868 Y93.587 E0.02715
G1 X127.201 Y94.175 E0.02005
G1 X127.320 Y94.693 E0.01577
G1 X127.320 Y125.307 E0.90899
G1 X127.201 Y125.825 E0.01577
G1 X126.868 Y126.413 E0.02005
G1 X126.191 Y127.027 E0.02715
G1 X125.761 Y127.226 E0.01407
G1 X125.308 Y127.320 E0.01373
G1 X94.693 Y127.320 E0.90901
G1 X94.175 Y127.201 E0.01577
G1 X93.587 Y126.868 E0.02005
G1 X92.973 Y126.191 E0.02715
G1 X92.774 Y125.761 E0.01407
G1 X92.680 Y125.308 E0.01373
G1 X92.680 Y94.693 E0.90901
G1 X92.799 Y94.175 E0.01577
G1 X93.102 Y93.640 E0.01827
G1 X93.396 Y93.829 F9000.000
G1 F1200.000
G1 X93.987 Y93.283 E0.02388
G1 X94.336 Y93.118 E0.01145
G1 X94.712 Y93.037 E0.01141
G1 X125.326 Y93.041 E0.90898
G1 X125.666 Y93.119 E0.01038
G1 X126.013 Y93.283 E0.01137
G1 X126.604 Y93.829 E0.02388
G1 X126.876 Y94.323 E0.01676
G1 X126.963 Y94.712 E0.01182
G1 X126.963 Y125.288 E0.90785
G1 X126.876 Y125.677 E0.01182
G1 X126.604 Y126.171 E0.01676
G1 X126.013 Y126.717 E0.02388
G1 X125.664 Y126.882 E0.01145
G1 X125.288 Y126.963 E0.01141
G1 X94.712 Y126.963 E0.90786
G1 X94.323 Y126.876 E0.01182
G1 X93.829 Y126.604 E0.01676
G1 X93.283 Y126.013 E0.02388
G1 X93.118 Y125.664 E0.01145
G1 X93.037 Y125.288 E0.01141
G1 X93.037 Y94.712 E0.90786
G1 X93.124 Y94.323 E0.01182
G1 X93.368 Y93.881 E0.01498
G1 X93.664 Y94.067 F9000.000
G1 F1200.000
G1 X94.166 Y93.594 E0.02048
G1 X94.470 Y93.450 E0.00997
G1 X94.730 Y93.395 E0.00791
G1 X125.305 Y93.398 E0.90782
G1 X125.531 Y93.450 E0.00688
G1 X125.834 Y93.594 E0.00995
G1 X126.336 Y94.067 E0.02048
G1 X126.548 Y94.467 E0.01346
G1 X126.605 Y94.730 E0.00800
G1 X126.605 Y125.270 E0.90674
G1 X126.548 Y125.533 E0.00800
G1 X126.336 Y125.933 E0.01346
G1 X125.834 Y126.406 E0.02048
G1 X125.530 Y126.550 E0.00997
G1 X125.270 Y126.605 E0.00791
G1 X94.730 Y126.605 E0.90675
G1 X94.467 Y126.548 E0.00800
G1 X94.067 Y126.336 E0.01346
G1 X93.594 Y125.834 E0.02048
G1 X93.450 Y125.530 E0.00997
G1 X93.395 Y125.270 E0.00791
G1 X93.395 Y94.730 E0.90675
G1 X93.452 Y94.467 E0.00800
G1 X93.636 Y94.120 E0.01168
G1 X93.936 Y94.300 F9000.000
G1 F1200.000
G1 X94.346 Y93.903 E0.01695
G1 X94.603 Y93.782 E0.00843
G1 X94.748 Y93.752 E0.00441
G1 X125.284 Y93.755 E0.90666
G1 X125.395 Y93.781 E0.00338
G1 X125.654 Y93.903 E0.00849
G1 X126.064 Y94.300 E0.01695
G1 X126.218 Y94.605 E0.01014
G1 X126.248 Y94.748 E0.00434
G1 X126.248 Y125.252 E0.90569
G1 X126.218 Y125.395 E0.00434
G1 X126.064 Y125.700 E0.01014
G1 X125.654 Y126.097 E0.01695
G1 X125.397 Y126.218 E0.00843
G1 X125.252 Y126.248 E0.00441
G1 X94.748 Y126.248 E0.90569
G1 X94.605 Y126.218 E0.00434
G1 X94.300 Y126.064 E0.01014
G1 X93.903 Y125.654 E0.01695
G1 X93.782 Y125.397 E0.00843
G1 X93.752 Y125.252 E0.00441
G1 X93.752 Y94.748 E0.90569
G1 X93.782 Y94.605 E0.00434
G1 X93.909 Y94.354 E0.00836
G1 X94.212 Y94.528 F9000.000
G1 F1200.000
G1 X94.528 Y94.212 E0.01325
G1 X94.765 Y94.109 E0.00768
G1 X125.235 Y94.109 E0.90470
G1 X125.472 Y94.212 E0.00768
G1 X125.788 Y94.528 E0.01325
G1 X125.891 Y94.765 E0.00768
G1 X125.891 Y125.235 E0.90470
G1 X125.788 Y125.472 E0.00768
G1 X125.472 Y125.788 E0.01325
G1 X125.235 Y125.891 E0.00768
G1 X94.765 Y125.891 E0.90470
G1 X94.528 Y125.788 E0.00768
G1 X94.212 Y125.472 E0.01325
G1 X94.109 Y125.235 E0.00768
G1 X94.109 Y94.765 E0.90470
G1 X94.187 Y94.582 E0.00590
G1 X94.493 Y94.752 F9000.000
G1 F1200.000
G1 X94.752 Y94.493 E0.01089
G1 X94.818 Y94.466 E0.00211
G1 X125.182 Y94.466 E0.90155
G1 X125.248 Y94.493 E0.00211
G1 X125.507 Y94.752 E0.01089
G1 X125.534 Y94.818 E0.00211
G1 X125.534 Y125.182 E0.90155
G1 X125.507 Y125.248 E0.00211
G1 X125.248 Y125.507 E0.01089
G1 X125.182 Y125.534 E0.00211
G1 X94.818 Y125.534 E0.90155
G1 X94.752 Y125.507 E0.00211
G1 X94.493 Y125.248 E0.01089
G1 X94.466 Y125.182 E0.00211
G1 X94.470 Y94.808 E0.90185
G1 X94.823 Y94.927 F9000.000
G1 F1200.000
G1 X94.927 Y94.823 E0.00439
G1 X125.073 Y94.823 E0.89505
G1 X125.177 Y94.927 E0.00439
G1 X125.177 Y125.073 E0.89505
G1 X125.073 Y125.177 E0.00439
G1 X94.927 Y125.177 E0.89505
G1 X94.823 Y125.073 E0.00439
G1 X94.823 Y94.987 E0.89327
G1 X95.301 Y95.301 F9000.000
;TYPE:External perimeter
G1 F1200.000
G1 X124.699 Y95.301 E0.87284
G1 X124.699 Y124.699 E0.87284
G1 X95.301 Y124.699 E0.87284
G1 X95.301 Y95.361 E0.87106
G1 E-6.00000 F2700.000
G1 X123.922 Y95.355 F9000.000
G1 E6.00000 F2100.000
;TYPE:Solid infill
;WIDTH:0.400445
G1 F1200.000
G1 X124.484 Y95.917 E0.02363
G1 X124.484 Y96.423 E0.01503
G1 X123.577 Y95.516 E0.03813
G1 X123.072 Y95.516 E0.01503
G1 X124.484 Y96.928 E0.05939
G1 X124.484 Y97.434 E0.01503
G1 X122.566 Y95.516 E0.08065
G1 X122.060 Y95.516 E0.01503
G1 X124.484 Y97.940 E0.10191
G1 X124.484 Y98.445 E0.01503
G1 X121.555 Y95.516 E0.12316
G1 X121.049 Y95.516 E0.01503
G1 X124.484 Y98.951 E0.14442
G1 X124.484 Y99.456 E0.01503
G1 X120.544 Y95.516 E0.16568
G1 X120.038 Y95.516 E0.01503
G1 X124.484 Y99.962 E0.18693
G1 X124.484 Y100.468 E0.01503
G1 X119.532 Y95.516 E0.20819
G1 X119.027 Y95.516 E0.01503
G1 X124.484 Y100.973 E0.22945
G1 X124.484 Y101.479 E0.01503
G1 X118.521 Y95.516 E0.25071
G1 X118.016 Y95.516 E0.01503
G1 X124.484 Y101.984 E0.27196
G1 X124.484 Y102.490 E0.01503
G1 X117.510 Y95.516 E0.29322
G1 X117.004 Y95.516 E0.01503
G1 X124.484 Y102.996 E0.31448
G1 X124.484 Y103.501 E0.01503
G1 X116.499 Y95.516 E0.33574
G1 X115.993 Y95.516 E0.01503
G1 X124.484 Y104.007 E0.35699
G1 X124.484 Y104.513 E0.01503
G1 X115.487 Y95.516 E0.37825
G1 X114.982 Y95.516 E0.01503
G1 X124.484 Y105.018 E0.39951
G1 X124.484 Y105.524 E0.01503
G1 X114.476 Y95.516 E0.42076
G1 X113.971 Y95.516 E0.01503
G1 X124.484 Y106.029 E0.44202
G1 X124.484 Y106.535 E0.01503
G1 X113.465 Y95.516 E0.46328
G1 X112.959 Y95.516 E0.01503
G1 X124.484 Y107.041 E0.48454
G1 X124.484 Y107.546 E0.01503
G1 X112.454 Y95.516 E0.50579
G1 X111.948 Y95.516 E0.01503
G1 X124.484 Y108.052 E0.52705
G1 X124.484 Y108.557 E0.01503
G1 X111.443 Y95.516 E0.54831
G1 X110.937 Y95.516 E0.01503
G1 X124.484 Y109.063 E0.56956
G1 X124.484 Y109.569 E0.01503
G1 X110.431 Y95.516 E0.59082
G1 X109.926 Y95.516 E0.01503
G1 X124.484 Y110.074 E0.61208
G1 X124.484 Y110.580 E0.01503
G1 X109.420 Y95.516 E0.63334
G1 X108.914 Y95.516 E0.01503
G1 X124.484 Y111.086 E0.65459
G1 X124.484 Y111.591 E0.01503
G1 X108.409 Y95.516 E0.67585
G1 X107.903 Y95.516 E0.01503
G1 X124.484 Y112.097 E0.69711
G1 X124.484 Y112.602 E0.01503
G1 X107.398 Y95.516 E0.71837
G1 X106.892 Y95.516 E0.01503
G1 X124.484 Y113.108 E0.73962
G1 X124.484 Y113.614 E0.01503
G1 X106.386 Y95.516 E0.76088
G1 X105.881 Y95.516 E0.01503
G1 X124.484 Y114.119 E0.78214
G1 X124.484 Y114.625 E0.01503
G1 X105.375 Y95.516 E0.80339
G1 X104.870 Y95.516 E0.01503
G1 X124.484 Y115.130 E0.82465
G1 X124.484 Y115.636 E0.01503
G1 X104.364 Y95.516 E0.84591
G1 X103.858 Y95.516 E0.01503
G1 X124.484 Y116.142 E0.86717
G1 X124.484 Y116.647 E0.01503
G1 X103.353 Y95.516 E0.88842
G1 X102.847 Y95.516 E0.01503
G1 X124.484 Y117.153 E0.90968
G1 X124.484 Y117.659 E0.01503
G1 X102.341 Y95.516 E0.93094
G1 X101.836 Y95.516 E0.01503
G1 X124.484 Y118.164 E0.95220
G1 X124.484 Y118.670 E0.01503
G1 X101.330 Y95.516 E0.97345
G1 X100.825 Y95.516 E0.01503
G1 X124.484 Y119.175 E0.99471
G1 X124.484 Y119.681 E0.01503
G1 X100.319 Y95.516 E1.01597
G1 X99.813 Y95.516 E0.01503
G1 X124.484 Y120.187 E1.03722
G1 X124.484 Y120.692 E0.01503
G1 X99.308 Y95.516 E1.05848
G1 X98.802 Y95.516 E0.01503
G1 X124.484 Y121.198 E1.07974
G1 X124.484 Y121.704 E0.01503
G1 X98.296 Y95.516 E1.10100
G1 X97.791 Y95.516 E0.01503
G1 X124.484 Y122.209 E1.12225
G1 X124.484 Y122.715 E0.01503
G1 X97.285 Y95.516 E1.14351
G1 X96.780 Y95.516 E0.01503
G1 X124.484 Y123.220 E1.16477
G1 X124.484 Y123.726 E0.01503
G1 X96.274 Y95.516 E1.18602
G1 X95.768 Y95.516 E0.01503
G1 X124.484 Y124.232 E1.20728
G1 X124.484 Y124.484 E0.00751
G1 X124.232 Y124.484 E0.00752
G1 X95.516 Y95.768 E1.20728
G1 X95.516 Y96.274 E0.01503
G1 X123.726 Y124.484 E1.18602
G1 X123.220 Y124.484 E0.01503
G1 X95.516 Y96.780 E1.16476
G1 X95.516 Y97.285 E0.01503
G1 X122.715 Y124.484 E1.14351
G1 X122.209 Y124.484 E0.01503
G1 X95.516 Y97.791 E1.12225
G1 X95.516 Y98.297 E0.01503
G1 X121.703 Y124.484 E1.10099
G1 X121.198 Y124.484 E0.01503
G1 X95.516 Y98.802 E1.07973
G1 X95.516 Y99.308 E0.01503
G1 X120.692 Y124.484 E1.05848
G1 X120.187 Y124.484 E0.01503
G1 X95.516 Y99.813 E1.03722
G1 X95.516 Y100.319 E0.01503
G1 X119.681 Y124.484 E1.01596
G1 X119.175 Y124.484 E0.01503
G1 X95.516 Y100.825 E0.99471
G1 X95.516 Y101.330 E0.01503
G1 X118.670 Y124.484 E0.97345
G1 X118.164 Y124.484 E0.01503
G1 X95.516 Y101.836 E0.95219
G1 X95.516 Y102.342 E0.01503
G1 X117.658 Y124.484 E0.93093
G1 X117.153 Y124.484 E0.01503
G1 X95.516 Y102.847 E0.90968
G1 X95.516 Y103.353 E0.01503
G1 X116.647 Y124.484 E0.88842
G1 X116.142 Y124.484 E0.01503
G1 X95.516 Y103.858 E0.86716
G1 X95.516 Y104.364 E0.01503
G1 X115.636 Y124.484 E0.84591
G1 X115.130 Y124.484 E0.01503
G1 X95.516 Y104.870 E0.82465
G1 X95.516 Y105.375 E0.01503
G1 X114.625 Y124.484 E0.80339
G1 X114.119 Y124.484 E0.01503
