;FLAVOR:Marlin
;TIME:2386
;Filament used: 0.721222m
;Layer height: 0.2
;MINX:24.955
;MINY:23.45
;MINZ:0.2
;MAXX:77.422
;MAXY:33.449
;MAXZ:41.2
;POSTPROCESSED
;ChangeAtZ instances: 1
;Generated with Cura_SteamEngine 4.4.1
M140 S60
M105
M190 S60
M104 S225
M105
M109 S225
M82 ;absolute extrusion mode
M201 X500.00 Y500.00 Z100.00 E5000.00 ;Setup machine max acceleration
M203 X500.00 Y500.00 Z10.00 E50.00 ;Setup machine max feedrate
M204 P500.00 R1000.00 T500.00 ;Setup Print/Retract/Travel acceleration
M205 X8.00 Y8.00 Z0.40 E5.00 ;Setup Jerk
M220 S100 ;Reset Feedrate
M221 S100 ;Reset Flowrate
G28 ;Home
G92 E0 ;Reset Extruder
G1 Z2.0 F3000 ;Move Z Axis up
G92 E0
G92 E0
G1 F2700 E-5
;LAYER_COUNT:205
;LAYER:0
M107
M204 S200
G1 F300 Z0.4
;MESH:TEMP_TOWER_PETER_v004.STL
G0 F6000 X33.401 Y28.45 Z0.4
;TYPE:WALL-INNER
G1 F300 Z0.2
G1 F2700 E0
G1 F900 X32.506 Y30.108 E0.07861
G1 X32.139 Y30.556 E0.10277
G1 X31.67 Y30.937 E0.12798
G1 X31.158 Y31.208 E0.15215
G1 X30.581 Y31.383 E0.17731
G1 X29.991 Y31.438 E0.20203
G1 X29.401 Y31.383 E0.22675
G1 X28.82 Y31.207 E0.25208
G1 X28.307 Y30.935 E0.27631
G1 X27.845 Y30.556 E0.30124
G1 X27.475 Y30.108 E0.32548
G1 X27.188 Y29.577 E0.35066
G1 X27.022 Y29.037 E0.37423
G1 X26.965 Y28.449 E0.39888
G1 X27.022 Y27.862 E0.42348
G1 X27.188 Y27.322 E0.44705
G1 X27.475 Y26.791 E0.47224
G1 X27.845 Y26.343 E0.49648
G1 X28.307 Y25.964 E0.52141
G1 X28.82 Y25.692 E0.54564
G1 X29.401 Y25.516 E0.57096
G1 X29.991 Y25.461 E0.59569
G1 X30.581 Y25.516 E0.62041
G1 X31.158 Y25.691 E0.64557
G1 X31.67 Y25.962 E0.66973
G1 X32.139 Y26.343 E0.69494
G1 X32.506 Y26.791 E0.71911
G1 X33.401 Y28.45 E0.79775
G0 F6000 X33.753 Y28.639
G1 F900 X32.84 Y30.332 E0.878
G1 X32.422 Y30.841 E0.90548
G1 X31.895 Y31.27 E0.93383
G1 X31.308 Y31.581 E0.96155
G1 X30.661 Y31.777 E0.98976
G1 X29.99 Y31.84 E1.01787
G1 X29.322 Y31.777 E1.04587
G1 X28.668 Y31.579 E1.07438
G1 X28.084 Y31.269 E1.10196
G1 X27.562 Y30.842 E1.1301
G1 X27.141 Y30.332 E1.15769
G1 X26.818 Y29.733 E1.18608
G1 X26.807 Y29.695 E1.18773
G1 X26.628 Y29.116 E1.21302
G1 X26.625 Y29.076 E1.21469
G1 X26.563 Y28.449 E1.24098
G1 X26.628 Y27.783 E1.2689
G1 X26.818 Y27.166 E1.29583
G1 X27.141 Y26.567 E1.32423
G1 X27.562 Y26.057 E1.35182
G1 X28.084 Y25.63 E1.37995
G1 X28.668 Y25.32 E1.40754
G1 X29.322 Y25.122 E1.43605
G1 X29.363 Y25.119 E1.43776
G1 X29.99 Y25.059 E1.46404
G1 X30.661 Y25.122 E1.49216
G1 X31.308 Y25.318 E1.52037
G1 X31.895 Y25.629 E1.54808
G1 X32.422 Y26.058 E1.57643
G1 X32.84 Y26.567 E1.60391
G1 X33.753 Y28.26 E1.68416
G1 X65.476 Y28.26 E3.00769
G1 X66.539 Y26.744 E3.08494
G1 X67.112 Y26.21 E3.11762
G1 X67.877 Y25.73 E3.1553
G1 X68.76 Y25.368 E3.19512
G1 X69.774 Y25.135 E3.23853
G1 X70.823 Y25.054 E3.28242
G1 X71.871 Y25.135 E3.32628
G1 X72.887 Y25.369 E3.36977
G1 X73.773 Y25.731 E3.40971
G1 X74.495 Y26.186 E3.44531
G1 X74.529 Y26.207 E3.44698
G1 X75.109 Y26.746 E3.48001
G1 X75.507 Y27.316 E3.50902
G1 X75.735 Y27.891 E3.53483
G1 X75.806 Y28.449 E3.55829
G1 X75.734 Y29.01 E3.58189
G1 X75.508 Y29.581 E3.60751
G1 X75.11 Y30.151 E3.63652
G1 X74.532 Y30.689 E3.66946
G1 X74.496 Y30.711 E3.67122
G1 X73.77 Y31.169 E3.70704
G1 X72.885 Y31.531 E3.74693
G1 X71.871 Y31.764 E3.79034
G1 X70.823 Y31.845 E3.83419
G1 X69.774 Y31.764 E3.87809
G1 X68.76 Y31.531 E3.9215
G1 X67.877 Y31.169 E3.96131
G1 X67.117 Y30.691 E3.99877
G1 X66.533 Y30.148 E4.03204
G1 X65.476 Y28.639 E4.10891
G1 X33.753 Y28.639 E5.3661
G0 F6000 X33.992 Y29.039
G1 F900 X33.174 Y30.556 E5.438
G1 X32.705 Y31.126 E5.4688
G1 X32.12 Y31.603 E5.50029
G1 X31.458 Y31.954 E5.53155
G1 X30.74 Y32.171 E5.56285
G1 X30.699 Y32.174 E5.56456
G1 X29.99 Y32.242 E5.59428
G1 X29.243 Y32.171 E5.62559
G1 X28.518 Y31.952 E5.65718
G1 X27.862 Y31.604 E5.68817
G1 X27.277 Y31.125 E5.71971
G1 X26.807 Y30.556 E5.7505
G1 X26.448 Y29.89 E5.78207
G1 X26.247 Y29.234 E5.81069
G1 X26.234 Y29.193 E5.81249
G1 X26.161 Y28.449 E5.84368
G1 X26.234 Y27.706 E5.87483
G1 X26.448 Y27.009 E5.90525
G1 X26.807 Y26.343 E5.93681
G1 X27.277 Y25.774 E5.9676
G1 X27.862 Y25.295 E5.99915
G1 X28.518 Y24.947 E6.03013
G1 X29.243 Y24.728 E6.06173
G1 X29.284 Y24.725 E6.06344
G1 X29.99 Y24.657 E6.09303
G1 X30.74 Y24.728 E6.12447
G1 X31.458 Y24.945 E6.15576
G1 X32.12 Y25.296 E6.18702
G1 X32.705 Y25.773 E6.21851
G1 X33.174 Y26.343 E6.24931
G1 X33.992 Y27.86 E6.32122
G1 X65.268 Y27.86 E7.6261
G1 X66.236 Y26.48 E7.69643
G1 X66.87 Y25.89 E7.73256
G1 X67.691 Y25.374 E7.77302
G1 X68.64 Y24.985 E7.81581
G1 X69.713 Y24.738 E7.86175
G1 X70.823 Y24.653 E7.90819
G1 X71.932 Y24.738 E7.9546
G1 X73.005 Y24.985 E8.00054
G1 X73.956 Y25.374 E8.0434
G1 X74.741 Y25.869 E8.08212
G1 X74.775 Y25.89 E8.08379
G1 X75.413 Y26.483 E8.12013
G1 X75.862 Y27.125 E8.15282
G1 X76.126 Y27.791 E8.18271
G1 X76.21 Y28.449 E8.21038
G1 X76.125 Y29.11 E8.23819
G1 X75.863 Y29.772 E8.26789
G1 X75.413 Y30.417 E8.3007
G1 X74.778 Y31.008 E8.3369
G1 X73.955 Y31.525 E8.37745
G1 X73.005 Y31.914 E8.42028
G1 X71.932 Y32.161 E8.46621
G1 X70.823 Y32.246 E8.51262
G1 X69.713 Y32.161 E8.55906
G1 X68.64 Y31.914 E8.605
G1 X67.691 Y31.525 E8.64779
G1 X66.874 Y31.011 E8.68806
G1 X66.229 Y30.411 E8.72482
G1 X65.268 Y29.039 E8.79471
G1 X33.992 Y29.039 E10.09959
G0 F6000 X34.231 Y29.439
G1 F900 X33.508 Y30.78 E10.16315
G1 X32.988 Y31.411 E10.19726
G1 X32.345 Y31.936 E10.2319
G1 X31.608 Y32.327 E10.2667
G1 X30.819 Y32.565 E10.30109
G1 X30.778 Y32.568 E10.3028
G1 X29.99 Y32.644 E10.33583
G1 X29.164 Y32.565 E10.37045
G1 X28.369 Y32.325 E10.4051
G1 X27.637 Y31.937 E10.43966
G1 X26.994 Y31.411 E10.47432
G1 X26.473 Y30.78 E10.50846
G1 X26.078 Y30.046 E10.54324
G1 X26.067 Y30.008 E10.54489
G1 X25.84 Y29.272 E10.57702
G1 X25.759 Y28.449 E10.61153
G1 X25.84 Y27.627 E10.64599
G1 X26.078 Y26.853 E10.67977
G1 X26.473 Y26.119 E10.71455
G1 X26.994 Y25.488 E10.74869
G1 X27.637 Y24.962 E10.78335
G1 X28.369 Y24.574 E10.81791
G1 X29.164 Y24.334 E10.85256
G1 X29.204 Y24.331 E10.85424
G1 X29.99 Y24.255 E10.88718
G1 X30.819 Y24.334 E10.92193
G1 X31.608 Y24.572 E10.95631
G1 X32.345 Y24.963 E10.99112
G1 X32.988 Y25.488 E11.02575
G1 X33.508 Y26.119 E11.05986
G1 X34.231 Y27.46 E11.12343
G1 X65.06 Y27.46 E12.40966
G1 X65.93 Y26.219 E12.47289
G1 X66.628 Y25.57 E12.51266
G1 X67.505 Y25.018 E12.55589
G1 X68.52 Y24.602 E12.60166
G1 X69.652 Y24.341 E12.65012
G1 X70.823 Y24.252 E12.69912
G1 X71.993 Y24.341 E12.74808
G1 X73.125 Y24.602 E12.79654
G1 X74.141 Y25.018 E12.84235
G1 X75.021 Y25.571 E12.88571
G1 X75.715 Y26.217 E12.92527
G1 X76.217 Y26.935 E12.96182
G1 X76.517 Y27.69 E12.99572
G1 X76.614 Y28.449 E13.02764
G1 X76.516 Y29.211 E13.05969
G1 X76.218 Y29.962 E13.0934
G1 X75.717 Y30.68 E13.12993
G1 X75.02 Y31.328 E13.16964
G1 X74.141 Y31.881 E13.21296
G1 X73.125 Y32.297 E13.25877
G1 X71.993 Y32.558 E13.30724
G1 X70.823 Y32.647 E13.35619
G1 X69.652 Y32.558 E13.40519
G1 X68.52 Y32.297 E13.45366
G1 X67.505 Y31.881 E13.49942
G1 X66.628 Y31.33 E13.54263
G1 X65.927 Y30.677 E13.5826
G1 X65.06 Y29.439 E13.64566
G1 X34.231 Y29.439 E14.93189
G0 F6000 X34.47 Y29.839
G1 F900 X33.842 Y31.004 E14.98711
G1 X33.27 Y31.697 E15.0246
G1 X32.568 Y32.27 E15.06241
G1 X31.761 Y32.699 E15.10054
G1 X30.897 Y32.959 E15.13818
G1 X30.858 Y32.962 E15.13982
G1 X29.99 Y33.046 E15.1762
G1 X29.084 Y32.959 E15.21417
G1 X28.22 Y32.698 E15.25183
G1 X27.412 Y32.27 E15.28998
G1 X26.711 Y31.697 E15.32775
G1 X26.139 Y31.004 E15.36524
G1 X25.708 Y30.203 E15.40319
G1 X25.459 Y29.39 E15.43867
G1 X25.446 Y29.349 E15.44046
G1 X25.357 Y28.45 E15.47815
G1 X25.446 Y27.55 E15.51588
G1 X25.708 Y26.696 E15.55315
G1 X26.139 Y25.895 E15.5911
G1 X26.711 Y25.202 E15.62859
G1 X27.412 Y24.629 E15.66637
G1 X28.182 Y24.222 E15.7027
G1 X28.22 Y24.201 E15.70452
G1 X29.084 Y23.94 E15.74217
G1 X29.99 Y23.853 E15.78015
G1 X30.897 Y23.94 E15.81816
G1 X31.761 Y24.2 E15.8558
G1 X32.568 Y24.629 E15.89394
G1 X33.27 Y25.202 E15.93174
G1 X33.842 Y25.895 E15.96923
G1 X34.47 Y27.06 E16.02445
G1 X64.852 Y27.06 E17.29203
G1 X65.629 Y25.952 E17.34849
G1 X66.382 Y25.251 E17.39142
G1 X67.319 Y24.662 E17.43759
G1 X68.4 Y24.219 E17.48633
G1 X69.591 Y23.944 E17.53733
G1 X70.823 Y23.851 E17.58888
G1 X72.054 Y23.944 E17.64038
G1 X73.245 Y24.219 E17.69138
G1 X74.327 Y24.662 E17.74016
G1 X75.263 Y25.251 E17.7863
G1 X76.019 Y25.954 E17.82937
G1 X76.572 Y26.745 E17.86964
G1 X76.907 Y27.589 E17.90752
G1 X77.018 Y28.449 E17.9437
G1 X76.906 Y29.313 E17.98005
G1 X76.573 Y30.152 E18.01771
G1 X76.021 Y30.943 E18.05796
G1 X75.263 Y31.648 E18.10114
G1 X74.327 Y32.237 E18.14728
G1 X73.245 Y32.68 E18.19606
G1 X72.054 Y32.955 E18.24706
G1 X70.823 Y33.048 E18.29857
G1 X69.591 Y32.955 E18.35011
G1 X68.4 Y32.68 E18.40111
G1 X67.319 Y32.237 E18.44985
G1 X66.382 Y31.648 E18.49603
G1 X65.625 Y30.943 E18.53919
G1 X64.852 Y29.839 E18.59542
G1 X34.47 Y29.839 E19.863
G1 F2700 E14.863
G1 F300 Z0.4
G0 F6000 X65.832 Y28.45 Z0.4
G1 F300 Z0.2
G1 F2700 E19.863
G1 F900 X66.843 Y27.008 E19.93647
G1 X67.358 Y26.529 E19.96582
G1 X68.062 Y26.086 E20.00052
G1 X68.88 Y25.751 E20.0374
G1 X69.835 Y25.532 E20.07828
G1 X70.823 Y25.455 E20.11963
G1 X71.81 Y25.532 E20.16093
G1 X72.769 Y25.753 E20.20199
G1 X73.59 Y26.088 E20.23898
G1 X74.283 Y26.524 E20.27314
G1 X74.805 Y27.009 E20.30287
G1 X75.152 Y27.507 E20.3282
G1 X75.344 Y27.991 E20.34992
G1 X75.403 Y28.448 E20.36914
G1 X75.343 Y28.91 E20.38858
G1 X75.153 Y29.39 E20.41012
G1 X74.808 Y29.885 E20.43529
G1 X74.283 Y30.374 E20.46523
G1 X73.587 Y30.812 E20.49954
G1 X72.767 Y31.147 E20.53649
G1 X71.81 Y31.367 E20.57746
G1 X70.823 Y31.444 E20.61877
G1 X69.835 Y31.367 E20.66011
G1 X68.88 Y31.148 E20.70099
G1 X68.063 Y30.813 E20.73783
G1 X67.359 Y30.371 E20.77251
G1 X66.837 Y29.885 E20.80227
G1 X65.832 Y28.45 E20.87536
G1 F2700 E15.87536
G1 F300 Z0.4
G0 F6000 X73.365 Y33.063 Z0.4
;TYPE:WALL-OUTER
G1 F300 Z0.2
G1 F2700 E20.87536
G1 F900 X72.115 Y33.352 E20.92889
G1 X70.823 Y33.449 E20.98295
G1 X69.53 Y33.352 E21.03704
G1 X68.28 Y33.063 E21.09057
G1 X67.134 Y32.593 E21.14225
G1 X66.136 Y31.967 E21.1914
G1 X65.323 Y31.209 E21.23777
G1 X64.644 Y30.239 E21.28717
G1 X34.709 Y30.239 E22.53611
G1 X34.176 Y31.228 E22.58298
G1 X33.552 Y31.983 E22.62385
G1 X32.791 Y32.604 E22.66483
G1 X31.914 Y33.07 E22.70626
G1 X30.975 Y33.353 E22.74718
G1 X29.99 Y33.448 E22.78846
G1 X29.006 Y33.353 E22.82971
G1 X28.067 Y33.07 E22.87063
G1 X27.189 Y32.604 E22.9121
G1 X26.429 Y31.983 E22.95305
G1 X25.805 Y31.228 E22.99391
G1 X25.338 Y30.36 E23.03503
G1 X25.052 Y29.426 E23.07579
G1 X24.955 Y28.45 E23.11671
G1 X25.052 Y27.473 E23.15767
G1 X25.338 Y26.539 E23.19843
G1 X25.805 Y25.671 E23.23955
G1 X26.429 Y24.916 E23.28041
G1 X27.189 Y24.295 E23.32136
G1 X28.067 Y23.829 E23.36283
G1 X29.006 Y23.546 E23.40375
G1 X29.99 Y23.451 E23.44499
G1 X30.975 Y23.546 E23.48628
G1 X31.914 Y23.829 E23.5272
G1 X32.791 Y24.295 E23.56863
G1 X33.552 Y24.916 E23.60961
G1 X34.176 Y25.671 E23.65048
G1 X34.709 Y26.66 E23.69735
G1 X64.644 Y26.66 E24.94629
G1 X65.325 Y25.688 E24.9958
G1 X66.136 Y24.932 E25.04206
G1 X67.134 Y24.306 E25.09121
G1 X68.28 Y23.836 E25.14289
G1 X69.53 Y23.547 E25.19642
G1 X70.823 Y23.45 E25.25051
G1 X72.115 Y23.547 E25.30457
G1 X73.365 Y23.836 E25.3581
G1 X74.512 Y24.306 E25.40981
G1 X75.509 Y24.932 E25.45893
G1 X76.321 Y25.688 E25.50522
G1 X76.927 Y26.555 E25.54935
G1 X77.297 Y27.487 E25.59119
G1 X77.422 Y28.45 E25.6317
G1 X77.297 Y29.412 E25.67217
G1 X76.928 Y30.343 E25.71396
G1 X76.323 Y31.209 E25.75803
G1 X75.509 Y31.967 E25.80444
G1 X74.512 Y32.593 E25.85355
G1 X73.365 Y33.063 E25.90527
G0 F6000 X73.232 Y32.644
G1 F2700 E20.90527
G1 F300 Z0.4
G0 F6000 X72.648 Y30.774 Z0.4
;TYPE:SKIN
G1 F300 Z0.2
G1 F2700 E25.90527
G1 F900 X71.745 Y30.981 E25.94392
G1 X70.823 Y31.054 E25.98251
G1 X69.899 Y30.981 E26.02118
G1 X69 Y30.775 E26.05966
G1 X68.239 Y30.463 E26.09397
G1 X67.595 Y30.059 E26.12569
G1 X67.137 Y29.633 E26.15179
G1 X66.309 Y28.45 E26.21203
G1 X67.143 Y27.26 E26.27266
G1 X67.592 Y26.843 E26.29823
G1 X68.241 Y26.434 E26.33023
G1 X69 Y26.124 E26.36444
G1 X69.899 Y25.918 E26.40292
G1 X70.823 Y25.845 E26.44159
G1 X71.745 Y25.918 E26.48018
G1 X72.65 Y26.126 E26.51892
G1 X73.411 Y26.437 E26.55322
G1 X74.046 Y26.836 E26.58451
G1 X74.509 Y27.266 E26.61087
G1 X74.805 Y27.692 E26.63251
G1 X74.964 Y28.094 E26.65055
G1 X75.011 Y28.448 E26.66545
G1 X74.963 Y28.807 E26.68056
G1 X74.806 Y29.206 E26.69845
G1 X74.51 Y29.631 E26.72006
G1 X74.049 Y30.06 E26.74633
G1 X73.408 Y30.463 E26.77792
G1 X72.648 Y30.774 E26.81218
G1 F2700 E21.81218
G1 F300 Z0.4
G0 F6000 X74.788 Y27.836 Z0.4
G1 F300 Z0.2
G1 F2700 E26.81218
G1 F900 X73.569 Y26.617 E26.88411
G0 F6000 X72.563 Y26.177
G1 F900 X74.929 Y28.543 E27.02371
G0 F6000 X74.816 Y28.995
G1 F900 X71.827 Y26.007 E27.20004
G0 F6000 X71.197 Y25.943
G1 F900 X74.615 Y29.36 E27.40168
G0 F6000 X74.362 Y29.673
G1 F900 X70.618 Y25.929 E27.62259
G0 F6000 X70.094 Y25.971
G1 F900 X74.07 Y29.946 E27.85716
G0 F6000 X73.734 Y30.177
G1 F900 X69.612 Y26.054 E28.1004
G0 F6000 X69.152 Y26.16
G1 F900 X73.387 Y30.395 E28.35027
G0 F6000 X72.986 Y30.56
G1 F900 X68.732 Y26.306 E28.60127
G0 F6000 X68.33 Y26.469
G1 F900 X72.579 Y30.718 E28.85198
G0 F6000 X72.119 Y30.824
G1 F900 X67.976 Y26.681 E29.09643
G0 F6000 X67.63 Y26.901
G1 F900 X71.649 Y30.919 E29.33353
G0 F6000 X71.125 Y30.961
G1 F900 X67.337 Y27.173 E29.55704
G0 F6000 X67.074 Y27.476
G1 F900 X70.562 Y30.964 E29.76284
G0 F6000 X69.949 Y30.916
G1 F900 X66.84 Y27.808 E29.94625
G0 F6000 X66.608 Y28.141
G1 F900 X69.222 Y30.755 E30.10048
G0 F6000 X68.325 Y30.424
G1 F900 X66.487 Y28.586 E30.20893
G1 F2700 E25.20893
G1 F300 Z0.4
G0 F6000 X32.958 Y28.45 Z0.4
G1 F300 Z0.2
G1 F2700 E30.20893
G1 F900 X32.182 Y29.888 E30.27711
G1 X31.863 Y30.278 E30.29813
G1 X31.455 Y30.609 E30.32005
G1 X31.005 Y30.847 E30.34129
G1 X30.506 Y30.999 E30.36305
G1 X29.991 Y31.046 E30.38463
G1 X29.476 Y30.999 E30.4062
G1 X28.973 Y30.846 E30.42814
G1 X28.522 Y30.607 E30.44943
G1 X28.121 Y30.278 E30.47107
G1 X27.801 Y29.889 E30.49209
G1 X27.55 Y29.426 E30.51406
G1 X27.406 Y28.958 E30.53449
G1 X27.357 Y28.448 E30.55587
G1 X27.406 Y27.941 E30.57712
G1 X27.55 Y27.473 E30.59755
G1 X27.801 Y27.01 E30.61952
G1 X28.121 Y26.621 E30.64053
G1 X28.522 Y26.292 E30.66218
G1 X28.973 Y26.053 E30.68347
G1 X29.476 Y25.9 E30.70541
G1 X29.991 Y25.853 E30.72698
G1 X30.506 Y25.9 E30.74856
G1 X31.005 Y26.052 E30.77032
G1 X31.455 Y26.29 E30.79156
G1 X31.863 Y26.621 E30.81348
G1 X32.182 Y27.011 E30.8345
G1 X32.958 Y28.45 E30.90271
G1 F2700 E25.90271
G1 F300 Z0.4
G0 F6000 X31.53 Y26.439 Z0.4
G1 F300 Z0.2
G1 F2700 E30.90271
G1 F900 X32.05 Y26.959 E30.93339
G0 F6000 X32.769 Y28.243
G1 F900 X30.492 Y25.967 E31.06771
G0 F6000 X29.89 Y25.93
G1 F900 X32.715 Y28.755 E31.2344
G0 F6000 X32.517 Y29.122
G1 F900 X29.39 Y25.996 E31.41887
G0 F6000 X28.963 Y26.134
G1 F900 X32.319 Y29.49 E31.61689
G0 F6000 X32.119 Y29.856
G1 F900 X28.593 Y26.331 E31.8249
G0 F6000 X28.277 Y26.58
G1 F900 X31.865 Y30.168 E32.0366
G0 F6000 X31.563 Y30.432
G1 F900 X28.001 Y26.87 E32.24677
G0 F6000 X27.77 Y27.205
G1 F900 X31.22 Y30.655 E32.45033
G0 F6000 X30.829 Y30.829
G1 F900 X27.584 Y27.584 E32.6418
G0 F6000 X27.464 Y28.03
G1 F900 X30.375 Y30.941 E32.81356
G0 F6000 X29.83 Y30.962
G1 F900 X27.436 Y28.567 E32.95484
G0 F6000 X27.573 Y29.27
G1 F900 X29.123 Y30.82 E33.0463
G1 F2700 E28.0463
G1 F300 Z0.4
;MESH:NONMESH
G0 F6000 X33.401 Y28.45 Z0.4
;TIME_ELAPSED:66.198510
;LAYER:1
M140 S60
M106 S85
;TYPE:WALL-INNER
;MESH:TEMP_TOWER_PETER_v004.STL
G1 F300 Z0.4
G1 F2700 E33.0463
G1 F1200 X32.506 Y30.108 E33.11648
G1 X32.139 Y30.556 E33.13806
G1 X31.67 Y30.937 E33.16056
G1 X31.158 Y31.208 E33.18214
G1 X30.581 Y31.383 E33.20461
