; generated by PrusaSlicer 2.3.0+win64 on 2021-02-27 at 20:46:45 UTC

; 

; external perimeters extrusion width = 0.45mm
; perimeters extrusion width = 0.45mm
; infill extrusion width = 0.45mm
; solid infill extrusion width = 0.45mm
; top infill extrusion width = 0.40mm
; first layer extrusion width = 0.42mm

M201 X500 Y500 Z100 E5000 ; sets maximum accelerations, mm/sec^2
M203 X500 Y500 Z10 E60 ; sets maximum feedrates, mm/sec
M204 P500 R1000 T500 ; sets acceleration (P, T) and retract acceleration (R), mm/sec^2
M205 X8.00 Y8.00 Z0.40 E5.00 ; sets the jerk limits, mm/sec
M205 S0 T0 ; sets the minimum extruding and travel feed rate, mm/sec
M107
;TYPE:Custom
G90 ; use absolute coordinates
M83 ; extruder relative mode
M104 S210 ; set extruder temp
M140 S70 ; set bed temp
M190 S70 ; wait for bed temp
M109 S210 ; wait for extruder temp
; Ender 3 Custom Start G-code
G92 E0 ; Reset Extruder
M280 P0 S160 ; BLTouch alarm release
G4 P100 ; delay for BLTouch
G28 ; home
M420 S1 ; Enable ABL
G1 Z2.0 F3000 ; Move Z Axis up little to prevent scratching of Heat Bed
G1 X0.1 Y20 Z0.3 F5000.0 ; Move to start position
G1 X0.1 Y200.0 Z0.3 F1500.0 E15 ; Draw the first line
G1 X0.4 Y200.0 Z0.3 F5000.0 ; Move to side a little
G1 X0.4 Y20 Z0.3 F1500.0 E30 ; Draw the second line
G92 E0 ; Reset Extruder
G1 Z2.0 F3000 ; Move Z Axis up little to prevent scratching of Heat Bed
G1 X5 Y20 Z0.3 F5000.0 ; Move over to prevent blob squish
G21 ; set units to millimeters
G90 ; use absolute coordinates
M83 ; use relative distances for extrusion
; Filament gcode
;LAYER_CHANGE
;Z:0.2
;HEIGHT:0.2
;BEFORE_LAYER_CHANGE
G92 E0
;0.2


G1 E-6.00000 F2700.000
G1 Z0.200 F9000.000
;AFTER_LAYER_CHANGE
;0.2
G1 X97.439 Y98.987
G1 E6.00000 F2400.000
;TYPE:Skirt
;WIDTH:0.42
G1 F1200.000
G1 X97.930 Y98.183 E0.02955
G1 X98.338 Y97.804 E0.01745
G1 X98.810 Y97.516 E0.01733
G1 X99.334 Y97.328 E0.01745
G1 X99.885 Y97.248 E0.01745
G1 X120.004 Y97.246 E0.63084
G1 X121.005 Y97.436 E0.03195
G1 X121.866 Y97.974 E0.03183
G1 X122.473 Y98.788 E0.03183
G1 X122.745 Y99.770 E0.03195
G1 X122.753 Y120.086 E0.63700
G1 X122.561 Y121.013 E0.02968
G1 X122.070 Y121.817 E0.02955
G1 X121.646 Y122.208 E0.01809
G1 X121.149 Y122.503 E0.01809
G1 X120.603 Y122.687 E0.01809
G1 X120.029 Y122.754 E0.01809
G1 X99.914 Y122.753 E0.63071
G1 X98.987 Y122.561 E0.02968
G1 X98.183 Y122.070 E0.02955
G1 X97.792 Y121.646 E0.01809
G1 X97.497 Y121.149 E0.01809
G1 X97.313 Y120.603 E0.01809
G1 X97.246 Y120.029 E0.01809
G1 X97.247 Y99.914 E0.63071
G1 X97.427 Y99.046 E0.02779
G1 X98.992 Y97.847 F9000.000
G1 F1200.000
G1 X99.915 Y97.624 E0.02977
G1 X120.004 Y97.623 E0.62987
G1 X120.871 Y97.788 E0.02767
G1 X121.620 Y98.261 E0.02778
G1 X122.143 Y98.971 E0.02767
G1 X122.371 Y99.824 E0.02767
G1 X122.376 Y120.065 E0.63464
G1 X122.209 Y120.878 E0.02602
G1 X121.773 Y121.584 E0.02602
G1 X121.407 Y121.916 E0.01550
G1 X120.980 Y122.166 E0.01550
G1 X120.511 Y122.321 E0.01550
G1 X120.020 Y122.377 E0.01550
G1 X99.931 Y122.376 E0.62987
G1 X99.122 Y122.209 E0.02590
G1 X98.416 Y121.773 E0.02602
G1 X98.084 Y121.407 E0.01550
G1 X97.834 Y120.980 E0.01550
G1 X97.679 Y120.511 E0.01550
G1 X97.623 Y120.020 E0.01550
G1 X97.624 Y99.931 E0.62987
G1 X97.791 Y99.122 E0.02590
G1 X98.227 Y98.416 E0.02602
G1 X98.944 Y97.883 E0.02801
G1 E-4.20000 F2700.000
;WIPE_START
G1 F7200.000
G1 X99.915 Y97.624 E-0.35807
G1 X103.710 Y97.624 E-1.35193
;WIPE_END
G1 E-0.09000 F2700.000
G1 X98.944 Y97.883 F9000.000
G1 X98.944 Y97.883
G1 X101.064 Y101.064
G1 E6.00000 F2400.000
;TYPE:Perimeter
G1 F1200.000
G1 X118.936 Y101.064 E0.56035
G1 X118.936 Y118.936 E0.56035
G1 X101.064 Y118.936 E0.56035
G1 X101.064 Y101.124 E0.55847
G1 X100.687 Y100.687 F9000.000
G1 F1200.000
G1 X119.313 Y100.687 E0.58400
G1 X119.313 Y119.313 E0.58400
G1 X100.687 Y119.313 E0.58400
G1 X100.687 Y100.747 E0.58212
G1 X100.310 Y100.310 F9000.000
;TYPE:External perimeter
G1 F1200.000
G1 X119.690 Y100.310 E0.60765
G1 X119.690 Y119.690 E0.60765
G1 X100.310 Y119.690 E0.60765
G1 X100.310 Y100.370 E0.60577
G1 X100.696 Y100.414 F9000.000
G1 E-6.00000 F2700.000
G1 X118.057 Y101.177 F9000.000
G1 E6.00000 F2400.000
;TYPE:Solid infill
;WIDTH:0.421825
G1 F1200.000
G1 X118.653 Y101.774 E0.02658
G1 X118.653 Y102.310 E0.01688
G1 X117.690 Y101.347 E0.04289
G1 X117.155 Y101.347 E0.01688
G1 X118.653 Y102.845 E0.06677
G1 X118.653 Y103.381 E0.01688
G1 X116.619 Y101.347 E0.09064
G1 X116.083 Y101.347 E0.01688
G1 X118.653 Y103.917 E0.11452
G1 X118.653 Y104.453 E0.01688
G1 X115.547 Y101.347 E0.13839
G1 X115.011 Y101.347 E0.01688
G1 X118.653 Y104.989 E0.16227
G1 X118.653 Y105.525 E0.01688
G1 X114.475 Y101.347 E0.18614
G1 X113.939 Y101.347 E0.01688
G1 X118.653 Y106.061 E0.21002
G1 X118.653 Y106.596 E0.01688
G1 X113.404 Y101.347 E0.23390
G1 X112.868 Y101.347 E0.01688
G1 X118.653 Y107.132 E0.25777
G1 X118.653 Y107.668 E0.01688
G1 X112.332 Y101.347 E0.28165
G1 X111.796 Y101.347 E0.01688
G1 X118.653 Y108.204 E0.30552
G1 X118.653 Y108.740 E0.01688
G1 X111.260 Y101.347 E0.32940
G1 X110.724 Y101.347 E0.01688
G1 X118.653 Y109.276 E0.35327
G1 X118.653 Y109.812 E0.01688
G1 X110.188 Y101.347 E0.37715
G1 X109.653 Y101.347 E0.01688
G1 X118.653 Y110.347 E0.40103
G1 X118.653 Y110.883 E0.01688
G1 X109.117 Y101.347 E0.42490
G1 X108.581 Y101.347 E0.01688
G1 X118.653 Y111.419 E0.44878
G1 X118.653 Y111.955 E0.01688
G1 X108.045 Y101.347 E0.47265
G1 X107.509 Y101.347 E0.01688
G1 X118.653 Y112.491 E0.49653
G1 X118.653 Y113.027 E0.01688
G1 X106.973 Y101.347 E0.52040
G1 X106.438 Y101.347 E0.01688
G1 X118.653 Y113.562 E0.54428
G1 X118.653 Y114.098 E0.01688
G1 X105.902 Y101.347 E0.56815
G1 X105.366 Y101.347 E0.01688
G1 X118.653 Y114.634 E0.59203
G1 X118.653 Y115.170 E0.01688
G1 X104.830 Y101.347 E0.61591
G1 X104.294 Y101.347 E0.01688
G1 X118.653 Y115.706 E0.63978
G1 X118.653 Y116.242 E0.01688
G1 X103.758 Y101.347 E0.66366
G1 X103.222 Y101.347 E0.01688
G1 X118.653 Y116.778 E0.68753
G1 X118.653 Y117.313 E0.01688
G1 X102.687 Y101.347 E0.71141
G1 X102.151 Y101.347 E0.01688
G1 X118.653 Y117.849 E0.73528
G1 X118.653 Y118.385 E0.01688
G1 X101.615 Y101.347 E0.75916
G1 X101.347 Y101.347 E0.00844
G1 X101.347 Y101.615 E0.00844
G1 X118.385 Y118.653 E0.75916
G1 X117.849 Y118.653 E0.01688
G1 X101.347 Y102.151 E0.73528
G1 X101.347 Y102.687 E0.01688
G1 X117.313 Y118.653 E0.71140
G1 X116.778 Y118.653 E0.01688
G1 X101.347 Y103.222 E0.68753
G1 X101.347 Y103.758 E0.01688
G1 X116.242 Y118.653 E0.66365
G1 X115.706 Y118.653 E0.01688
G1 X101.347 Y104.294 E0.63978
G1 X101.347 Y104.830 E0.01688
G1 X115.170 Y118.653 E0.61590
G1 X114.634 Y118.653 E0.01688
G1 X101.347 Y105.366 E0.59203
G1 X101.347 Y105.902 E0.01688
G1 X114.098 Y118.653 E0.56815
G1 X113.562 Y118.653 E0.01688
G1 X101.347 Y106.438 E0.54428
G1 X101.347 Y106.973 E0.01688
G1 X113.027 Y118.653 E0.52040
G1 X112.491 Y118.653 E0.01688
G1 X101.347 Y107.509 E0.49652
G1 X101.347 Y108.045 E0.01688
G1 X111.955 Y118.653 E0.47265
G1 X111.419 Y118.653 E0.01688
G1 X101.347 Y108.581 E0.44877
G1 X101.347 Y109.117 E0.01688
G1 X110.883 Y118.653 E0.42490
G1 X110.347 Y118.653 E0.01688
G1 X101.347 Y109.653 E0.40102
G1 X101.347 Y110.189 E0.01688
G1 X109.811 Y118.653 E0.37715
G1 X109.276 Y118.653 E0.01688
G1 X101.347 Y110.724 E0.35327
G1 X101.347 Y111.260 E0.01688
G1 X108.740 Y118.653 E0.32939
G1 X108.204 Y118.653 E0.01688
G1 X101.347 Y111.796 E0.30552
G1 X101.347 Y112.332 E0.01688
G1 X107.668 Y118.653 E0.28164
G1 X107.132 Y118.653 E0.01688
G1 X101.347 Y112.868 E0.25777
G1 X101.347 Y113.404 E0.01688
G1 X106.596 Y118.653 E0.23389
G1 X106.060 Y118.653 E0.01688
G1 X101.347 Y113.940 E0.21002
G1 X101.347 Y114.475 E0.01688
G1 X105.525 Y118.653 E0.18614
G1 X104.989 Y118.653 E0.01688
G1 X101.347 Y115.011 E0.16227
G1 X101.347 Y115.547 E0.01688
G1 X104.453 Y118.653 E0.13839
G1 X103.917 Y118.653 E0.01688
G1 X101.347 Y116.083 E0.11451
G1 X101.347 Y116.619 E0.01688
G1 X103.381 Y118.653 E0.09064
G1 X102.845 Y118.653 E0.01688
G1 X101.347 Y117.155 E0.06676
G1 X101.347 Y117.690 E0.01688
G1 X102.309 Y118.653 E0.04289
G1 X101.774 Y118.653 E0.01688
G1 X101.177 Y118.057 E0.02657
;LAYER_CHANGE
;Z:0.4
;HEIGHT:0.2
;BEFORE_LAYER_CHANGE
G92 E0
;0.4


G1 E-4.20000 F2700.000
;WIPE_START
G1 F7200.000
G1 X101.774 Y118.653 E-0.30046
G1 X102.309 Y118.653 E-0.19090
G1 X101.347 Y117.690 E-0.48494
G1 X101.347 Y117.155 E-0.19090
G1 X102.424 Y118.232 E-0.54280
;WIPE_END
G1 E-0.09000 F2700.000
G1 Z0.400 F9000.000
;AFTER_LAYER_CHANGE
;0.4
M140 S65 ; set bed temperature
G1 X98.987 Y122.561
G1 E6.00000 F2400.000
;TYPE:Skirt
;WIDTH:0.42
G1 X98.183 Y122.070 E0.02955
G1 X97.792 Y121.646 E0.01809
G1 X97.497 Y121.149 E0.01809
G1 X97.313 Y120.603 E0.01809
G1 X97.246 Y120.029 E0.01809
G1 X97.247 Y99.914 E0.63071
G1 X97.439 Y98.987 E0.02968
G1 X97.930 Y98.183 E0.02955
G1 X98.338 Y97.804 E0.01745
G1 X98.810 Y97.516 E0.01733
G1 X99.334 Y97.328 E0.01745
G1 X99.885 Y97.248 E0.01745
G1 X120.004 Y97.246 E0.63084
G1 X121.005 Y97.436 E0.03195
G1 X121.866 Y97.974 E0.03183
G1 X122.473 Y98.788 E0.03183
G1 X122.745 Y99.770 E0.03195
G1 X122.753 Y120.086 E0.63700
G1 X122.561 Y121.013 E0.02968
G1 X122.070 Y121.817 E0.02955
G1 X121.646 Y122.208 E0.01809
G1 X121.149 Y122.503 E0.01809
G1 X120.603 Y122.687 E0.01809
G1 X120.029 Y122.754 E0.01809
G1 X99.914 Y122.753 E0.63071
G1 X99.046 Y122.573 E0.02780
G1 X99.122 Y122.209 F9000.000
G1 F2400.000
G1 X98.416 Y121.773 E0.02602
G1 X98.084 Y121.407 E0.01550
G1 X97.834 Y120.980 E0.01550
G1 X97.679 Y120.511 E0.01550
G1 X97.623 Y120.020 E0.01550
G1 X97.624 Y99.931 E0.62987
G1 X97.791 Y99.122 E0.02590
G1 X98.227 Y98.416 E0.02602
G1 X98.992 Y97.847 E0.02989
G1 X99.915 Y97.624 E0.02977
G1 X120.004 Y97.623 E0.62987
G1 X120.871 Y97.788 E0.02767
G1 X121.620 Y98.261 E0.02778
G1 X122.143 Y98.971 E0.02767
G1 X122.371 Y99.824 E0.02767
G1 X122.376 Y120.065 E0.63464
G1 X122.209 Y120.878 E0.02602
G1 X121.773 Y121.584 E0.02602
G1 X121.407 Y121.916 E0.01550
G1 X120.980 Y122.166 E0.01550
G1 X120.511 Y122.321 E0.01550
G1 X120.020 Y122.377 E0.01550
G1 X99.931 Y122.376 E0.62987
G1 X99.181 Y122.221 E0.02402
G1 E-4.20000 F2700.000
;WIPE_START
G1 F7200.000
G1 X98.416 Y121.773 E-0.31581
G1 X98.084 Y121.407 E-0.17609
G1 X97.834 Y120.980 E-0.17609
G1 X97.679 Y120.511 E-0.17609
G1 X97.623 Y120.020 E-0.17609
G1 X97.623 Y118.084 E-0.68984
;WIPE_END
G1 E-0.09000 F2700.000
G1 X99.181 Y122.221 F9000.000
G1 X99.181 Y122.221
G1 X101.039 Y101.039
G1 E6.00000 F2400.000
;TYPE:Perimeter
;WIDTH:0.45
G1 F3000.000
G1 X118.961 Y101.039 E0.60663
G1 X118.961 Y118.961 E0.60663
G1 X101.039 Y118.961 E0.60663
G1 X101.039 Y101.099 E0.60460
G1 X100.632 Y100.632 F9000.000
G1 F3000.000
G1 X119.368 Y100.632 E0.63419
G1 X119.368 Y119.368 E0.63419
G1 X100.632 Y119.368 E0.63419
G1 X100.632 Y100.692 E0.63216
G1 X100.225 Y100.310 F9000.000
;TYPE:External perimeter
G1 F1500.000
G1 X100.225 Y100.225 E0.00288
G1 X119.775 Y100.225 E0.66174
G1 X119.775 Y119.775 E0.66174
G1 X100.225 Y119.775 E0.66174
G1 X100.225 Y100.370 E0.65684
G1 X100.285 Y100.250 F9000.000
G1 E-6.00000 F2700.000
G1 X118.008 Y118.839 F9000.000
G1 E6.00000 F2400.000
;TYPE:Solid infill
;WIDTH:0.453694
G1 X118.656 Y118.191 E0.03128
G1 X118.656 Y117.610 E0.01984
G1 X117.610 Y118.656 E0.05049
G1 X117.029 Y118.656 E0.01984
G1 X118.656 Y117.029 E0.07855
G1 X118.656 Y116.448 E0.01984
G1 X116.448 Y118.656 E0.10661
G1 X115.867 Y118.656 E0.01984
G1 X118.656 Y115.867 E0.13467
G1 X118.656 Y115.287 E0.01984
G1 X115.287 Y118.656 E0.16274
G1 X114.706 Y118.656 E0.01984
G1 X118.656 Y114.706 E0.19080
G1 X118.656 Y114.125 E0.01984
G1 X114.125 Y118.656 E0.21886
G1 X113.544 Y118.656 E0.01984
G1 X118.656 Y113.544 E0.24692
G1 X118.656 Y112.963 E0.01984
G1 X112.963 Y118.656 E0.27498
G1 X112.382 Y118.656 E0.01984
G1 X118.656 Y112.382 E0.30304
G1 X118.656 Y111.801 E0.01984
G1 X111.801 Y118.656 E0.33110
G1 X111.220 Y118.656 E0.01984
G1 X118.656 Y111.220 E0.35916
G1 X118.656 Y110.639 E0.01984
G1 X110.639 Y118.656 E0.38722
G1 X110.058 Y118.656 E0.01984
G1 X118.656 Y110.058 E0.41528
G1 X118.656 Y109.477 E0.01984
G1 X109.477 Y118.656 E0.44334
G1 X108.896 Y118.656 E0.01984
G1 X118.656 Y108.896 E0.47140
G1 X118.656 Y108.315 E0.01984
G1 X108.315 Y118.656 E0.49946
G1 X107.735 Y118.656 E0.01984
G1 X118.656 Y107.735 E0.52753
G1 X118.656 Y107.154 E0.01984
G1 X107.154 Y118.656 E0.55559
G1 X106.573 Y118.656 E0.01984
G1 X118.656 Y106.573 E0.58365
G1 X118.656 Y105.992 E0.01984
G1 X105.992 Y118.656 E0.61171
G1 X105.411 Y118.656 E0.01984
G1 X118.656 Y105.411 E0.63977
G1 X118.656 Y104.830 E0.01984
G1 X104.830 Y118.656 E0.66783
G1 X104.249 Y118.656 E0.01984
G1 X118.656 Y104.249 E0.69589
G1 X118.656 Y103.668 E0.01984
G1 X103.668 Y118.656 E0.72395
G1 X103.087 Y118.656 E0.01984
G1 X118.656 Y103.087 E0.75201
G1 X118.656 Y102.506 E0.01984
G1 X102.506 Y118.656 E0.78007
G1 X101.925 Y118.656 E0.01984
G1 X118.656 Y101.925 E0.80813
G1 X118.656 Y101.344 E0.01984
G1 X101.344 Y118.655 E0.83619
G1 X101.344 Y118.075 E0.01984
G1 X118.075 Y101.344 E0.80813
G1 X117.494 Y101.344 E0.01984
G1 X101.344 Y117.494 E0.78007
G1 X101.344 Y116.913 E0.01984
G1 X116.913 Y101.344 E0.75201
G1 X116.332 Y101.344 E0.01984
G1 X101.344 Y116.332 E0.72395
G1 X101.344 Y115.751 E0.01984
G1 X115.751 Y101.344 E0.69589
G1 X115.170 Y101.344 E0.01984
G1 X101.344 Y115.170 E0.66782
G1 X101.344 Y114.589 E0.01984
G1 X114.589 Y101.344 E0.63976
G1 X114.008 Y101.344 E0.01984
G1 X101.344 Y114.008 E0.61170
G1 X101.344 Y113.427 E0.01984
G1 X113.427 Y101.344 E0.58364
G1 X112.846 Y101.344 E0.01984
G1 X101.344 Y112.846 E0.55558
G1 X101.344 Y112.265 E0.01984
G1 X112.265 Y101.344 E0.52752
G1 X111.684 Y101.344 E0.01984
G1 X101.344 Y111.684 E0.49946
G1 X101.344 Y111.103 E0.01984
G1 X111.103 Y101.344 E0.47140
G1 X110.523 Y101.344 E0.01984
G1 X101.344 Y110.523 E0.44334
G1 X101.344 Y109.942 E0.01984
G1 X109.942 Y101.344 E0.41528
G1 X109.361 Y101.344 E0.01984
G1 X101.344 Y109.361 E0.38722
G1 X101.344 Y108.780 E0.01984
G1 X108.780 Y101.344 E0.35916
G1 X108.199 Y101.344 E0.01984
G1 X101.344 Y108.199 E0.33109
G1 X101.344 Y107.618 E0.01984
G1 X107.618 Y101.344 E0.30303
G1 X107.037 Y101.344 E0.01984
G1 X101.344 Y107.037 E0.27497
G1 X101.344 Y106.456 E0.01984
G1 X106.456 Y101.344 E0.24691
G1 X105.875 Y101.344 E0.01984
G1 X101.344 Y105.875 E0.21885
G1 X101.344 Y105.294 E0.01984
G1 X105.294 Y101.344 E0.19079
G1 X104.713 Y101.344 E0.01984
G1 X101.344 Y104.713 E0.16273
G1 X101.344 Y104.132 E0.01984
G1 X104.132 Y101.344 E0.13467
G1 X103.552 Y101.344 E0.01984
G1 X101.344 Y103.552 E0.10661
G1 X101.344 Y102.971 E0.01984
G1 X102.971 Y101.344 E0.07855
G1 X102.390 Y101.344 E0.01984
G1 X101.344 Y102.390 E0.05049
G1 X101.344 Y101.809 E0.01984
G1 X101.992 Y101.161 E0.03127
;LAYER_CHANGE
;Z:0.6
;HEIGHT:0.2
;BEFORE_LAYER_CHANGE
G92 E0
;0.6


G1 E-4.20000 F2700.000
;WIPE_START
G1 F7200.000
G1 X101.344 Y101.809 E-0.32620
G1 X101.344 Y102.390 E-0.20695
G1 X102.390 Y101.344 E-0.52658
G1 X102.971 Y101.344 E-0.20695
G1 X102.091 Y102.224 E-0.44331
;WIPE_END
G1 E-0.09000 F2700.000
G1 Z0.600 F9000.000
;AFTER_LAYER_CHANGE
;0.6
G1 X101.039 Y101.039
G1 E6.00000 F2400.000
;TYPE:Perimeter
;WIDTH:0.45
G1 F3000.000
G1 X118.961 Y101.039 E0.60663
G1 X118.961 Y118.961 E0.60663
G1 X101.039 Y118.961 E0.60663
G1 X101.039 Y101.099 E0.60460
G1 X100.632 Y100.632 F9000.000
G1 F3000.000
G1 X119.368 Y100.632 E0.63419
G1 X119.368 Y119.368 E0.63419
G1 X100.632 Y119.368 E0.63419
G1 X100.632 Y100.692 E0.63216
G1 X100.225 Y100.310 F9000.000
;TYPE:External perimeter
G1 F1500.000
G1 X100.225 Y100.225 E0.00288
G1 X119.775 Y100.225 E0.66174
G1 X119.775 Y119.775 E0.66174
G1 X100.225 Y119.775 E0.66174
G1 X100.225 Y100.370 E0.65684
G1 X100.285 Y100.250 F9000.000
G1 E-6.00000 F2700.000
G1 X118.839 Y101.992 F9000.000
G1 E6.00000 F2400.000
;TYPE:Solid infill
;WIDTH:0.453694
G1 X118.191 Y101.344 E0.03128
G1 X117.610 Y101.344 E0.01984
G1 X118.656 Y102.390 E0.05049
G1 X118.656 Y102.971 E0.01984
G1 X117.029 Y101.344 E0.07855
G1 X116.448 Y101.344 E0.01984
G1 X118.656 Y103.552 E0.10661
G1 X118.656 Y104.133 E0.01984
G1 X115.867 Y101.344 E0.13467
G1 X115.287 Y101.344 E0.01984
G1 X118.656 Y104.713 E0.16274
G1 X118.656 Y105.294 E0.01984
G1 X114.706 Y101.344 E0.19080
G1 X114.125 Y101.344 E0.01984
